!!!!SEGMENT: pl-kk--kk-i-305--002_anonim--diffusa-est-gratia.krn
!!!cenid: 17xx:2105
!!!COM: Anonim
!!!COM-rismID: pe30004985
!!!CDT:
!!!CNT:
!!!OTL: Diffusa est gratia
!!!PDT:
!!!AGN: Sacred
!!!SMS-siglum: PL-Kk
!!!SMS-shelfmark: Kk.I.305
!!!SMS-shelfwork: 002 W
!!!SMS-variant:
!!!SMS-altvar:
!!!NIFC-rismSourceID: 1001147342
!!!NIFC-islandoraID: pl-kk:5163
!!!URL-pdf-islandora: https://repozytorium.nifc.pl/islandora/object/pl-kk%3A5163/datastream/PDF/view
!!!URL-scan: https://polish.musicsources.pl/pl/lokalizacje/galeria/rekopisy/5924 @EN{Scan on Polish Music Sources Website} @PL{Skany w portalu Dziedzictwo Muzyki Polskiej w otwartym dostępie}
!!!ONB-nifc: UWAGA: utwory w zbiorze: 1. Veni sponsa (SATBBrip), 2. Diffusa est gratia (SA)
!!!AIN: 1 alto 1 vox
!!!key:
**kern	**text	**kern	**text
*part2	*part2	*part1	*part1
*staff2	*staff2	*staff1	*staff1
*group1	*	*group1	*
*Ialto	*	*Ivox	*
*I"Alto.	*	*I"Canto.	*
*I'A	*	*I'S	*
*clefC3	*	*clefC1	*
*k[]	*	*k[]	*
*C:	*	*C:	*
*M2/2	*	*M2/2	*
*met(c|)	*	*met(c|)	*
=1	=1	=1	=1
!LO:TX:a:t=Offertorium.	!	!LO:TX:a:t=Offertorium.	!
2r	.	1r	.
*2\right	*	*	*
2g\	Dif-	.	.
=2	=2	=2	=2
1g	-fu-	2r	.
*	*	*2\right	*
.	.	2ee\	Dif-
=3	=3	=3	=3
1a	.	[<1ff	-fu-
=4	=4	=4	=4
1g	.	2ff\]	.
.	.	2ee\	.
=5	=5	=5	=5
2.f\	.	2.dd\	.
4g\	-sa	4dd\	-sa
=6	=6	=6	=6
!LO:TX:t=P:problem=cezura na 2. linii	!	!	!
1g,<	eſt	1ee	eſt
=7	=7	=7	=7
[<1g	gra-	2.ee\	gra-
.	.	4cc\	.
=8	=8	=8	=8
4g\]	.	2dd\	.
4a\	.	.	.
4b\	.	2gg\	.
[<4g\	.	.	.
!LO:LB:g=original	!	!LO:LB:g=original	!
=9	=9	=9	=9
2g\]	.	2.cc\	.
2f#X\	-ti-	.	.
.	.	(8b\L	-ti-
.	.	8cc\J)	.
=10	=10	=10	=10
!LO:TX:t=P:problem=cezura na 1. linii	!	!	!
2g,<\	-a	2dd\	-a
(4f#X\	in	2r	.
4e\)	.	.	.
=11	=11	=11	=11
1d	la-	2r	.
.	.	2b\	in
=12	=12	=12	=12
1e	.	[<1cc	la-
=13	=13	=13	=13
2a\	-bi-	2cc\]	.
[<2g\	-js	4b\	-bi-
.	.	4b\	-js
=14	=14	=14	=14
2g\]	.	1a	tu-
2f#X\	tu-	.	.
=15	=15	=15	=15
!	!	!LO:TX:t=P:problem=cezura na 1. linii	!
1g	-is	1b,<	-is,
=16	=16	=16	=16
1r	.	2g\	prop-
.	.	2b\	-te-
=17	=17	=17	=17
1g	prop-	2.cc\	-re-
.	.	4b\	-a
!	!	!LO:LB:g=original	!
=18	=18	=18	=18
2a\	-ter-	4a\	be-
.	.	4cc\	-ne-
4a\	-e-	[<2dd\	-di-
4g\	-a	.	.
!LO:LB:g=original	!	!	!
=19	=19	=19	=19
4f\	be-	(4dd\]	.
4a\	-ne-	4cc\)	.
!	!	!LO:TX:t=P:problem=cezura na 2. linii	!
[<2b\	-di-	4b,<\	-xit
.	.	4dd\	te
=20	=20	=20	=20
4b\]	.	2.ee\	De-
4a\	.	.	.
!LO:TX:t=P:problem=cezura na 3. linii	!	!	!
4g,<\	-xit	.	.
4f\	te	4dd\	-us
=21	=21	=21	=21
2e\	De-	(4cc\	in
.	.	4ee\)	.
[<2a\	.	[<2ff\	ae-
=22	=22	=22	=22
4a\]	.	4ff\]	.
4g\	-us	4ee\	.
4f\	in	4dd\	.
4e\	ae-	4cc\	.
=23	=23	=23	=23
1d	-ter-	1b	-ter-
=24	=24	=24	=24
1e	-nu(m)	1cc	-num
!	!	!LO:LB:g=original	!
=25	=25	=25	=25
[<1a	in	[<1ff	in
=26	=26	=26	=26
2a\]	.	2ff\]	.
(4g\	ae-	(4ee\	ae-
4f\)	.	4dd\)	.
=27	=27	=27	=27
1g	-ter-	4ee\	-ter-
.	.	4cc\	.
.	.	4ee\	.
.	.	4gg\	.
!LO:LB:g=original	!	!	!
=28	=28	=28	=28
!LO:TX:t=P:problem=cezura na 2. linii	!	!LO:TX:t=P:problem=cezura na 2. linii	!
1g,<	-num,	1dd,<	-num,
=29	=29	=29	=29
2.g\	et	2.cc\	et
4e\	in	4cc\	in
=30	=30	=30	=30
2c\	Sae-	2.a\	Sae-
2f\	.	.	.
.	.	4dd\	.
=31	=31	=31	=31
2d\	.	4b\	.
.	.	4g\	.
2g\	.	[<2cc\	.
=32	=32	=32	=32
4f\	.	4cc\]	.
4e\	.	4ee\	.
4d\	.	[<2ff\	.
4f\	.	.	.
!	!	!LO:LB:g=original	!
=33	=33	=33	=33
2g\	.	4ff\]	.
.	.	4dd\	-cu-
4g\	-cu-	(4ee\	-lum
4a\	-lum	8dd\L	.
.	.	8cc\J)	.
=34	=34	=34	=34
2.g\	Sae-	2cc\	Sae-
.	.	2b\	-cu-
4g\	-cu-	.	.
=35	=35	=35	=35
!	!	!LO:TX:t=P:problem=cezura na 2. linii	!
1g	-li	1cc,<	-li,
=36	=36	=36	=36
1r	.	2g\	prop-
.	.	2b\	-te-
!LO:PB:g=original	!	!	!
=37	=37	=37	=37
1g	prop-	2.cc\	-re-
.	.	4b\	-a
=38	=38	=38	=38
2a\	-te-	4a\	be-
.	.	4cc\	-ne-
4a\	-re-	[<2dd\	-di-
4g\	-a	.	.
=39	=39	=39	=39
4f\	be-	4dd\]	.
4a\	-ne-	4cc\	.
!	!	!LO:TX:t=P:problem=cezura na 2. linii	!
[<2b\	-di-	4b,<\	-xit
.	.	4dd\	te
!	!	!LO:PB:g=original	!
=40	=40	=40	=40
4b\]	.	2.ee\	De-
4a\	.	.	.
!LO:TX:t=P:problem=cezura na 3. linii	!	!	!
4g,<\	-xit	.	.
4f\	te	4dd\	-us
=41	=41	=41	=41
2e\	De-	(4cc\	in
.	.	4ee\)	.
[<2a\	.	[<2ff\	ae-
=42	=42	=42	=42
4a\]	.	4ff\]	.
4g\	-us	4ee\	.
4f\	in	4dd\	.
4e\	ae-	4cc\	.
=43	=43	=43	=43
1d	-ter-	1b	-ter-
=44	=44	=44	=44
!	!	!LO:TX:t=P:problem=cezura na 3. linii	!
1e	-num	1cc,<	-num
!LO:LB:g=original	!	!	!
=45	=45	=45	=45
[<1a	in	[<1ff	in
=46	=46	=46	=46
2a\]	.	2ff\]	.
(4g\	ae-	(4ee\	ae-
4f\)	.	4dd\)	.
=47	=47	=47	=47
1g	-ter-	4ee\	-ter-
.	.	4cc\	.
.	.	4ee\	.
.	.	4gg\	.
=48	=48	=48	=48
!LO:TX:t=P:problem=cezura na 3. linii	!	!	!
1g,<	-num,	1dd	-num
!	!	!LO:LB:g=original	!
=49	=49	=49	=49
2.g\	et	2.cc\	et
4e\	in	4cc\	in
=50	=50	=50	=50
2c\	Sae-	2.a\	Sae-
2f\	.	.	.
.	.	4dd\	.
=51	=51	=51	=51
2d\	.	4b\	.
.	.	4g\	.
2g\	.	[<2cc\	.
=52	=52	=52	=52
4f\	.	4cc\]	.
4e\	.	4ee\	.
4d\	.	[<2ff\	.
4f\	.	.	.
!LO:LB:g=original	!	!	!
=53	=53	=53	=53
2g\	.	4ff\]	.
.	.	4dd\	-cu-
4g\	-cu-	(4ee\	-lum
4a\	-lum	8dd\L	.
.	.	8cc\J)	.
=54	=54	=54	=54
2.g\	Sae-	2cc\	ſae-
.	.	2b\	-cu-
4g\	-cu-	.	.
=55	=55	=55	=55
0g;	-li.	0cc;	-li.
==	==	==	==
*-	*-	*-	*-
!!!system-decoration: [g1]
!!!RDF**kern: > = above
!!!RDF**kern: < = below
!!!ENC: Andrzej Kubiczek
!!!END: 2021-04-08
!!!ENC: Kamil Watkowski
!!!END: 2021-03-17
!!!YEC: Copyright 2022 Narodowy Instytut Fryderyka Chopina (https://polishscores.org)
!!!YEM: Licence CC BY 4.0 (https://creativecommons.org/licenses/by/4.0)
